X:544
T:Ich klag den Tag und alle stund
Z:Jack Campin, http://www.campin.me.uk/
F:Jack Campin's Nine-Note Tunebook
% last edit 03-11-2013
C:Thomas Stoltzer 1480-1526
M:2/2
L:1/8
Q:1/2=80
K:C
[V:1] c4 c4|B4    BGAB| c4   c2 B2|A4   A4    |G8       |z4 GFEG|F4 F4|E8|
[V:2] c4 c4|G4    G4  | cBcd c2 G2|A4   F4    |G8       |z4 G4  |D4 F4|C8|
%
[V:1] z4 E4|D4    D2E2|^F2G4    F2|G8         |z4   EDEF|G4 F4  |E8   |
[V:2] z4 C4|G2 GA B2c2| A2G2 A4   |G8         |z4   A4  |G4 D4  |E8   |
%
[V:1] z4 G4|G6      G2| A4   c4   |B2BA GF E2-|EEDC D4  |C8|]
[V:2] z4 E4|E4    E4  | A4   A4   |G4   E2 G2 |G4   G4  |C8|]

